Sources/FrostedUI/Resources/Icons.xcassets/arrowFatUp12.imageset/arrow-fat-up-12.svg

<svg width="12" height="12" viewBox="0 0 12 12" fill="none" xmlns="http://www.w3.org/2000/svg" data-fui-icon="true">
  <path
    d="M5.05261 0.576385C5.55132 -0.00283438 6.44847 -0.00265339 6.94714 0.576385L10.0878 4.22287C10.6454 4.871 10.1852 5.87504 9.32996 5.87521H8.37488V10.1252C8.37463 10.8153 7.81502 11.3751 7.12488 11.3752H4.87488C4.18478 11.3751 3.62513 10.8153 3.62488 10.1252V5.87521H2.6698C1.81475 5.87484 1.35517 4.87096 1.91296 4.22287L5.05261 0.576385ZM3.76062 4.37521H4.37488C4.78891 4.37529 5.12469 4.7112 5.12488 5.12521V9.87521H6.87488V5.12521C6.87506 4.71122 7.21087 4.37532 7.62488 4.37521H8.23914L5.99988 1.77463L3.76062 4.37521Z"
    fill="currentColor"
  />
</svg>

<svg xmlns="http://www.w3.org/2000/svg" width="12" height="12" fill="none" data-fui-icon="true" viewBox="0 0 12 12"><path fill="currentColor" d="M5.053.576a1.25 1.25 0 0 1 1.894 0l3.14 3.647a1 1 0 0 1-.757 1.652h-.955v4.25c0 .69-.56 1.25-1.25 1.25h-2.25c-.69 0-1.25-.56-1.25-1.25v-4.25H2.67c-.855 0-1.315-1.004-.757-1.652zm-1.292 3.8h.614a.75.75 0 0 1 .75.75v4.75h1.75v-4.75a.75.75 0 0 1 .75-.75h.614L6 1.774z"/></svg>
